X: 062037
T: Fowler on the Moor
S: Treoir 37/2
L: 1/8
M: 12/8
R: slide
Q: 1/4 = 240
K: G
A |: G2E EDE c2A B2G | AcA G2E A2c B2A |
[1 G2E EDE c2A B2G | AcA G2E D3 D2 E :|
[2 G2A B2c d3 B2G | AGE G2E D3 D2E ||
G2A B2c d3 B2G | ABA G2E A2c B2A |
G2A B2c d3 B2G |1 AGE G2E D3 D2E :|
[2 AGE G2E D3 D2 ||
